src/shared/assets/auth/avatar-placeholder.svg

<svg width="144" height="144" viewBox="0 0 144 144" fill="none" xmlns="http://www.w3.org/2000/svg">
<rect width="144" height="144" rx="72" fill="white"/>
<g opacity="0.05">
<path d="M27.9272 90.8387C27.0826 88.2051 30.8314 81.2231 33.7641 78.3301L39.8099 89.3794C39.8099 89.3794 28.7718 93.4723 27.9272 90.8387Z" fill="black"/>
<path d="M33.3467 78.3298C33.3467 78.3298 24.7992 89.7961 28.5529 91.4639C31.0804 92.5869 35.8491 86.4605 35.8491 86.4605" stroke="black" stroke-width="2.36973" stroke-linecap="round" stroke-linejoin="round"/>
<path d="M45.2476 52.8922C25.192 66.1473 37.0753 87.2955 37.0753 87.2955C37.0753 87.2955 31.0285 87.2955 31.8626 92.5074C32.6966 97.7194 42.6244 97.5109 50.1296 97.5109C57.6045 97.5109 61.4211 95.939 62.751 95.3913L62.767 95.3847C62.8636 97.9124 75.3759 98.6746 90.9732 98.2735C109.467 97.7979 109.833 88.525 109.833 88.525C109.833 88.525 112.326 93.2982 114.837 91.6735C118.968 89 114.162 77.3339 112.847 73.543C114.646 68.8496 114.088 54.0769 97.2631 48.1526C85.1058 43.8718 57.6912 44.668 45.2476 52.8922Z" fill="black"/>
<path d="M62.767 95.3847C62.8636 97.9124 75.3759 98.6746 90.9732 98.2735C109.467 97.7979 109.833 88.525 109.833 88.525C109.833 88.525 112.326 93.2982 114.837 91.6735C118.968 89 114.162 77.3339 112.847 73.543C114.646 68.8496 114.088 54.0769 97.2631 48.1526C85.1058 43.8718 57.6912 44.668 45.2476 52.8922C25.192 66.1473 37.0753 87.2955 37.0753 87.2955C37.0753 87.2955 31.0285 87.2955 31.8626 92.5074C32.6966 97.7194 42.6244 97.5109 50.1296 97.5109C57.6348 97.5109 61.452 95.9263 62.767 95.3847ZM62.767 95.3847C62.5877 90.6913 63.4847 88.525 72.4516 88.525" stroke="black" stroke-width="2.36973" stroke-linecap="round" stroke-linejoin="round"/>
</g>
<path d="M72 66C72.994 66 73.7997 66.8058 73.7998 67.7998V70.2002H76.2002C77.1942 70.2003 78 71.006 78 72C78 72.994 77.1942 73.7997 76.2002 73.7998H73.7998V76.2002C73.7997 77.1942 72.994 78 72 78C71.006 78 70.2003 77.1942 70.2002 76.2002V73.7998H67.7998C66.8058 73.7997 66 72.994 66 72C66 71.006 66.8058 70.2003 67.7998 70.2002H70.2002V67.7998C70.2003 66.8058 71.006 66 72 66Z" fill="white"/>
</svg>

<svg xmlns="http://www.w3.org/2000/svg" fill="none" viewBox="0 0 144 144"><rect width="144" height="144" fill="#fff" rx="72"/><g opacity=".05"><path fill="#000" d="M27.927 90.839c-.844-2.634 2.904-9.616 5.837-12.509l6.046 11.05s-11.038 4.092-11.883 1.459"/><path stroke="#000" stroke-linecap="round" stroke-linejoin="round" stroke-width="2.37" d="M33.347 78.33s-8.548 11.466-4.794 13.134c2.527 1.123 7.296-5.004 7.296-5.004"/><path fill="#000" d="M45.248 52.892c-20.056 13.255-8.173 34.404-8.173 34.404s-6.047 0-5.212 5.211c.834 5.212 10.761 5.004 18.267 5.004 7.474 0 11.291-1.572 12.621-2.12l.016-.006c.097 2.527 12.609 3.29 28.206 2.888 18.494-.475 18.86-9.748 18.86-9.748s2.493 4.773 5.004 3.148c4.131-2.673-.675-14.34-1.99-18.13 1.799-4.693 1.241-19.466-15.584-25.39-12.157-4.281-39.572-3.485-52.015 4.74"/><path stroke="#000" stroke-linecap="round" stroke-linejoin="round" stroke-width="2.37" d="M62.767 95.385c.097 2.527 12.609 3.29 28.206 2.888 18.494-.475 18.86-9.748 18.86-9.748s2.493 4.773 5.004 3.148c4.131-2.673-.675-14.34-1.99-18.13 1.799-4.693 1.241-19.466-15.584-25.39-12.157-4.281-39.572-3.485-52.015 4.74-20.056 13.254-8.173 34.403-8.173 34.403s-6.047 0-5.212 5.211c.834 5.212 10.761 5.004 18.267 5.004 7.505 0 11.322-1.585 12.637-2.126m0 0c-.18-4.694.718-6.86 9.685-6.86"/></g><path fill="#fff" d="M72 66a1.8 1.8 0 0 1 1.8 1.8v2.4h2.4a1.8 1.8 0 0 1 0 3.6h-2.4v2.4a1.8 1.8 0 0 1-3.6 0v-2.4h-2.4a1.8 1.8 0 0 1 0-3.6h2.4v-2.4A1.8 1.8 0 0 1 72 66"/></svg>
